packages/icons/src/s3-ci-step.svg

<svg fill="none" viewBox="0 0 41 41" xmlns="http://www.w3.org/2000/svg" xmlns:xlink="http://www.w3.org/1999/xlink"><clipPath id="a"><path d="m.661621.967606h40v40h-40z"/></clipPath><g clip-path="url(#a)"><path d="m20.6611 30.3803 13.5512 3.2859.0214-.034-.0004-25.39263-.0215-.02272-13.5507 3.28095z" fill="#8c3123"/><path clip-rule="evenodd" d="m26.5717 12.7534-5.9105-1.4622v-9.85002l5.9105 2.95494zm-19.46184 20.9057 13.93044-3.316v-4.4874l5.5314-.704v-8.3568l-5.5314-.6938v-4.6405l-13.93044-3.24375zm19.46134 3.8808-5.91 2.9539v-9.8493l5.91-1.4618zm10.2453-28.02133-2.6041-1.30172v25.44935l2.6041-1.3013z" fill="#e05243" fill-rule="evenodd"/><path clip-rule="evenodd" d="m14.7522 12.7534 5.9089-1.4622.0478-.0148v-9.79571l-.0478-.03951-5.9089 2.95494zm-10.24536-3.23483 2.60293-1.30172.01565.01792v25.40553l-.01565.0188-2.60293-1.2941zm16.15426 16.38533-5.9089-.7522v-8.3568l5.9089-.7413.0703.0757-.0332 9.6891zm-5.9095 11.6361 5.9095 2.954.0634-.1705.0236-9.5801-.087-.0988-5.9095-1.4618z" fill="#8c3123" fill-rule="evenodd"/><path d="m26.5718 12.7534-5.9105 1.0772-5.9089-1.0772 5.9015-1.5468z" fill="#5e1f18"/><path d="m26.5713 29.1822-5.9105-1.0842-5.9088 1.0842 5.9016 1.6474z" fill="#f2b0a9"/></g></svg>

<svg viewBox="0 0 41 41" fill="none" xmlns="http://www.w3.org/2000/svg">
<g clip-path="url(#clip0_2952_318952)">
<path d="M20.6611 30.3803L34.2123 33.6662L34.2337 33.6322L34.2333 8.23957L34.2118 8.21685L20.6611 11.4978V30.3803Z" fill="#8C3123"/>
<path fill-rule="evenodd" clip-rule="evenodd" d="M26.5717 12.7534L20.6612 11.2912V1.44118L26.5717 4.39612V12.7534ZM7.10986 33.6591L21.0403 30.3431V25.8557L26.5717 25.1517V16.7949L21.0403 16.1011V11.4606L7.10986 8.21685V33.6591ZM26.5712 37.5399L20.6612 40.4938V30.6445L26.5712 29.1827V37.5399ZM36.8165 9.51857L34.2124 8.21685V33.6662L36.8165 32.3649V9.51857Z" fill="#E05243"/>
<path fill-rule="evenodd" clip-rule="evenodd" d="M14.7522 12.7534L20.6611 11.2912L20.7089 11.2764V1.48069L20.6611 1.44118L14.7522 4.39612V12.7534ZM4.50684 9.51857L7.10977 8.21685L7.12542 8.23477V33.6403L7.10977 33.6591L4.50684 32.365V9.51857ZM20.6611 25.9039L14.7522 25.1517V16.7949L20.6611 16.0536L20.7314 16.1293L20.6982 25.8184L20.6611 25.9039ZM14.7516 37.54L20.6611 40.494L20.7245 40.3235L20.7481 30.7434L20.6611 30.6446L14.7516 29.1828V37.54Z" fill="#8C3123"/>
<path d="M26.5718 12.7534L20.6613 13.8306L14.7524 12.7534L20.6539 11.2066L26.5718 12.7534Z" fill="#5E1F18"/>
<path d="M26.5713 29.1822L20.6608 28.098L14.752 29.1822L20.6536 30.8296L26.5713 29.1822Z" fill="#F2B0A9"/>
</g>
<defs>
<clipPath id="clip0_2952_318952">
<rect width="40" height="40" fill="white" transform="translate(0.661621 0.967606)"/>
</clipPath>
</defs>
</svg>
